icon/privacy.sexy.svg

<svg xmlns="http://www.w3.org/2000/svg" viewBox="0 0 256 256"><path fill="#3a65ab" stroke="#3a65ab" d="m128 173-26 2c-16.61-.03-37.98-4.69-53-11.78-10.54-4.98-20.61-11.05-28.99-19.26-5.13-5.03-9.29-10.64-12.7-16.96-3.95-7.34-6.21-14.63-6.31-23v-6c.29-24.08 23.76-44.56 43-55.57C84.66 19.15 129.75 23.12 169 47c19.74 12.02 38.93 29.23 39 54h-20c-1.54-14.52-19.28-29.16-31-36.39-16.24-10.02-35.67-17.83-55-17.61-13.58.16-29.8 5.52-42 11.32C45.3 65.3 19.83 84.81 21.1 103c.29 4.16 1.82 7.33 3.66 11 7.94 15.78 23.4 26.02 39.24 32.72 11.16 4.72 28.9 8.54 41 8.27 8.45-.2 16.81-2.15 25-3.99zm8-94c6.71 2.35 8.84 14.6 8.99 21 .52 22.74-14.68 40.73-37.99 41-23.37.26-39.57-14.48-40.91-38C64.82 80.73 85.85 58.9 104 64c-3.82 5.73-8.55 10.53-7.8 18 1.09 10.87 13.86 20.98 24.8 17.03 8.92-3.22 13.61-11.07 15-20.03Zm50 34.46c20.11-2.77 39.57 1.46 53.91 16.55 12.94 13.62 15.3 27.08 15.09 44.99-.24 20.49-13.74 39.25-32 47.88-9.94 4.7-18.28 5.24-29 5.12-43.66-.51-67.29-49.15-47.68-86 8.61-16.18 22.23-24.77 39.68-28.54ZM233 181c9.24-22.22-11.16-47.46-34-47.99-10.6-.24-16.25 2.3-25 7.99 4.6 5.85 21.92 16.24 29 20.86 6.82 4.46 23.61 16.69 30 19.14Zm-12 19c-4.61-5.85-14.58-11.39-21-15.67-7.69-5.12-31.23-21.74-38-24.33-2.33 5.03-2.06 6.57-2 12 .23 18.99 17.11 35.55 36 35.99 10.6.24 16.25-2.3 25-7.99Z"/></svg>

<svg xmlns="http://www.w3.org/2000/svg" viewBox="0 0 256 256"><path fill="#3a65ab" stroke="#3a65ab" stroke-width="1" d="M128.00,173.00 C128.00,173.00 102.00,175.00 102.00,175.00 85.39,174.97 64.02,170.31 49.00,163.22 38.46,158.24 28.39,152.17 20.01,143.96 14.88,138.93 10.72,133.32 7.31,127.00 3.36,119.66 1.10,112.37 1.00,104.00 1.00,104.00 1.00,98.00 1.00,98.00 1.29,73.92 24.76,53.44 44.00,42.43 84.66,19.15 129.75,23.12 169.00,47.00 188.74,59.02 207.93,76.23 208.00,101.00 208.00,101.00 188.00,101.00 188.00,101.00 186.46,86.48 168.72,71.84 157.00,64.61 140.76,54.59 121.33,46.78 102.00,47.00 88.42,47.16 72.20,52.52 60.00,58.32 45.30,65.30 19.83,84.81 21.10,103.00 21.39,107.16 22.92,110.33 24.76,114.00 32.70,129.78 48.16,140.02 64.00,146.72 75.16,151.44 92.90,155.26 105.00,154.99 113.45,154.79 121.81,152.84 130.00,151.00 130.00,151.00 128.00,173.00 128.00,173.00 ZM136.00,79.00 C142.71,81.35 144.84,93.60 144.99,100.00 145.51,122.74 130.31,140.73 107.00,141.00 83.63,141.26 67.43,126.52 66.09,103.00 64.82,80.73 85.85,58.90 104.00,64.00 100.18,69.73 95.45,74.53 96.20,82.00 97.29,92.87 110.06,102.98 121.00,99.03 129.92,95.81 134.61,87.96 136.00,79.00 ZM186.00,113.46 C206.11,110.69 225.57,114.92 239.91,130.01 252.85,143.63 255.21,157.09 255.00,175.00 254.76,195.49 241.26,214.25 223.00,222.88 213.06,227.58 204.72,228.12 194.00,228.00 150.34,227.49 126.71,178.85 146.32,142.00 154.93,125.82 168.55,117.23 186.00,113.46 ZM233.00,181.00 C242.24,158.78 221.84,133.54 199.00,133.01 188.40,132.77 182.75,135.31 174.00,141.00 178.60,146.85 195.92,157.24 203.00,161.86 209.82,166.32 226.61,178.55 233.00,181.00 ZM221.00,200.00 C216.39,194.15 206.42,188.61 200.00,184.33 192.31,179.21 168.77,162.59 162.00,160.00 159.67,165.03 159.94,166.57 160.00,172.00 160.23,190.99 177.11,207.55 196.00,207.99 206.60,208.23 212.25,205.69 221.00,200.00 Z" /></svg>
